SFASUI/public/images/modal-image3.svg

<svg width="220" height="110" viewBox="0 0 220 110" fill="none" xmlns="http://www.w3.org/2000/svg">
<path d="M153.199 61.0184C143.534 46.2192 144.561 31.0494 139.903 23.9169C135.244 16.7843 121.359 4.48697 88.5538 25.9153C55.7481 47.3436 64.092 70.6375 69.2184 78.4805C93.21 115.209 170.319 87.2282 153.199 61.0184Z" fill="#F5F3F7"/>
<path d="M88.9167 45.4164V78.6386C88.9167 81.4497 91.2167 83.7497 94.0279 83.7497H125.972C128.783 83.7497 131.083 81.4497 131.083 78.6386V45.4164H88.9167Z" fill="#F5F3F7"/>
<path d="M136.195 45.4164H83.8057V39.0275C83.8057 36.2036 86.0929 33.9164 88.9168 33.9164H131.083C133.907 33.9164 136.195 36.2036 136.195 39.0275V45.4164Z" fill="#C7522D"/>
<path d="M94.6668 33.9164H88.9168C86.0929 33.9164 83.8057 36.2036 83.8057 39.0275V45.4164H89.5557V39.0275C89.5557 36.2036 91.8429 33.9164 94.6668 33.9164Z" fill="#C7522D"/>
<path d="M74.3152 21.2126L76.1222 19.4056L79.7363 23.0197L77.9293 24.8267L74.3152 21.2126Z" fill="#ABA7AF"/>
<path d="M73.8635 33.4053L77.4776 29.7912L79.2847 31.5982L75.6706 35.2123L73.8635 33.4053Z" fill="#ABA7AF"/>
<path d="M84.2527 23.0181L87.8668 19.404L89.6738 21.211L86.0597 24.8251L84.2527 23.0181Z" fill="#ABA7AF"/>
<path d="M134.917 24.7038C132.803 24.7038 131.083 22.9839 131.083 20.8704C131.083 18.757 132.803 17.0371 134.917 17.0371C137.03 17.0371 138.75 18.757 138.75 20.8704C138.75 22.9839 137.03 24.7038 134.917 24.7038ZM134.917 19.5927C134.211 19.5927 133.639 20.1651 133.639 20.8704C133.639 21.5758 134.211 22.1482 134.917 22.1482C135.622 22.1482 136.194 21.5758 136.194 20.8704C136.194 20.1651 135.622 19.5927 134.917 19.5927Z" fill="#ABA7AF"/>
<path d="M125.972 85.6665H94.0278C90.151 85.6665 87 82.5155 87 78.6387V45.4165H90.8333V78.6387C90.8333 80.3995 92.267 81.8332 94.0278 81.8332H125.972C127.733 81.8332 129.167 80.3995 129.167 78.6387V45.4165H133V78.6387C133 82.5155 129.849 85.6665 125.972 85.6665Z" fill="#1A141F"/>
<path d="M136.194 47.3333H124.056V43.5H134.278V39.0278C134.278 37.267 132.844 35.8333 131.083 35.8333H88.9167C87.1559 35.8333 85.7222 37.267 85.7222 39.0278V43.5H124.056V47.3333H83.8056C82.7476 47.3333 81.8889 46.4747 81.8889 45.4167V39.0278C81.8889 35.151 85.0399 32 88.9167 32H131.083C134.96 32 138.111 35.151 138.111 39.0278V45.4167C138.111 46.4747 137.252 47.3333 136.194 47.3333Z" fill="#1A141F"/>
<path d="M122.778 33.9166H118.944V28.8055C118.944 28.4528 118.658 28.1666 118.306 28.1666H101.694C101.342 28.1666 101.056 28.4528 101.056 28.8055V33.9166H97.2222V28.8055C97.2222 26.3394 99.2283 24.3333 101.694 24.3333H118.306C120.772 24.3333 122.778 26.3394 122.778 28.8055V33.9166Z" fill="#1A141F"/>
<path d="M108.083 56.9165H111.917V73.5276H108.083V56.9165Z" fill="#1A141F"/>
<path d="M97.2222 56.9165H101.056V73.5276H97.2222V56.9165Z" fill="#1A141F"/>
<path d="M118.944 56.9165H122.778V73.5276H118.944V56.9165Z" fill="#1A141F"/>
<path d="M69.1111 81.8333H150.889V85.6666H69.1111V81.8333Z" fill="#1A141F"/>
</svg>

<svg width="220" height="110" fill="none" xmlns="http://www.w3.org/2000/svg"><path d="M153.199 61.018c-9.665-14.799-8.638-29.969-13.296-37.101-4.659-7.133-18.544-19.43-51.35 1.998-32.805 21.429-24.461 44.722-19.335 52.566C93.21 115.209 170.32 87.228 153.2 61.018Z" fill="#F5F3F7"/><path d="M88.917 45.416V78.64c0 2.81 2.3 5.11 5.11 5.11h31.945c2.811 0 5.111-2.3 5.111-5.11V45.416H88.917Z" fill="#F5F3F7"/><path d="M136.195 45.416h-52.39v-6.388a5.11 5.11 0 0 1 5.112-5.112h42.166a5.11 5.11 0 0 1 5.112 5.112v6.388Z" fill="#C7522D"/><path d="M94.667 33.916h-5.75a5.11 5.11 0 0 0-5.111 5.112v6.388h5.75v-6.388a5.11 5.11 0 0 1 5.11-5.112Z" fill="#C7522D"/><path d="m74.315 21.213 1.807-1.807 3.614 3.614-1.807 1.807-3.614-3.614ZM73.864 33.405l3.614-3.614 1.807 1.807-3.614 3.614-1.808-1.807ZM84.253 23.018l3.614-3.614 1.807 1.807-3.614 3.614-1.807-1.807ZM134.917 24.704a3.838 3.838 0 0 1-3.834-3.834 3.838 3.838 0 0 1 3.834-3.833 3.838 3.838 0 0 1 3.833 3.833 3.838 3.838 0 0 1-3.833 3.834Zm0-5.111a1.278 1.278 0 1 0 0 2.556 1.278 1.278 0 0 0 0-2.556Z" fill="#ABA7AF"/><path d="M125.972 85.666H94.028A7.034 7.034 0 0 1 87 78.64V45.417h3.833v33.222a3.199 3.199 0 0 0 3.195 3.194h31.944a3.2 3.2 0 0 0 3.195-3.194V45.417H133v33.222a7.034 7.034 0 0 1-7.028 7.028Z" fill="#1A141F"/><path d="M136.194 47.333h-12.138V43.5h10.222v-4.472a3.2 3.2 0 0 0-3.195-3.195H88.917a3.199 3.199 0 0 0-3.195 3.195V43.5h38.334v3.833h-40.25a1.917 1.917 0 0 1-1.917-1.916v-6.39A7.034 7.034 0 0 1 88.917 32h42.166a7.034 7.034 0 0 1 7.028 7.028v6.389a1.918 1.918 0 0 1-1.917 1.916Z" fill="#1A141F"/><path d="M122.778 33.917h-3.834v-5.112a.639.639 0 0 0-.638-.638h-16.612a.639.639 0 0 0-.638.638v5.112h-3.834v-5.112a4.477 4.477 0 0 1 4.472-4.472h16.612a4.477 4.477 0 0 1 4.472 4.473v5.11ZM108.083 56.916h3.834v16.612h-3.834V56.916ZM97.222 56.916h3.834v16.612h-3.834V56.916ZM118.944 56.916h3.834v16.612h-3.834V56.916ZM69.111 81.833h81.778v3.834H69.111v-3.834Z" fill="#1A141F"/></svg>
